X:402
T:Say Old Man Can You Play The Fiddle
C:Traditional
N:Transcribed by Kim Davis and Mike Stangeland
R:bluegrass
L:1/8
Q:1/4=220
M:4/4
K:G
z8 | "Em"E6 EF | "D"GE D"Em"G EF G2 | E6 EF | "D"GE D"Em"G EE E2 | E6 EF | "D"GE A"Em"d BG G2 | 
E6 EF | "D"GE D"Em"G E3[AD] | "Em"[B2E2] [B2E2] [B2E2] [B2E2] | [B2E2] AG "D"EF GA | 
"Em"[B2E2] [B2E2] AB zA | "D"G2 A"Em"G DE2[AD] | [B2E2] [B2E2] [B2E2] [B2E2] | 
[B2E2] AG "D"EF GA | "Em"Be ef ed BA | "D"G2 AG "Em"DE zA | "Em"Bc BA Bc BA | 
BG AG "D"EF GA | "Em"Bc BA Bc BA | "D"G2 AG DE2[AD] | "Em"[B2E2] [B2E2] [B3E3][AD] | 
[B2E2] AG "D"EF GA | "Em"Be ef ed BA | "D"G2 A"Em"G DE ze | 
K:A
"E"e2 ge fe ge | "D"fe de fg af | "E"e2 ge fe ge | "D"fe de (3"E"fgf e2 | "E"e2 ge fe ge | 
"D"fe de fg af | "E"ed Bd ef ge | "D"fe de "E"fe e2 | "E"e2 ge be ge | "D"fe de fg af | 
"E"e2 ge be ge | "D"fe de (3"E"fgf e2 | "E"e2 ge be ge | "D"fe de fg af | "E"ed Bd ef ge | 
"D"fe de "E"fe e2 | 


